X:23
T:Bourr\'ee d'Oulches
R:Bourr\'ee
Z:Bert Van Vreckem <http://flanders.blackmill.net/music/>
M:3/4
L:1/4
K:C
G|:c d/c/ B/A/|G c e|d f B|d c G|c d/c/ B/A/|G c e|d f B|[1c2 G:|[2c2 e/f/|
|:g a g|d2 d/e/|f d/f/ d/f/|e c e/f/|g a g|d2 d/e/|f d B|[1c2 e/f/:|[2c2 z|]

